X: 1
T: Sl\"angpolska efter Byss Kalle
C: Trad. efter Byss-Kalle
B: #32 in 57 L\aatar efter Byss-Kalle)
R: slang-polska
S: http://www.nyckelharpa.org/archive/written-music/american-allspel-list/ 2022/9/28
Z: 2022 John Chambers <jc:trillian.mit.edu>
M: 3/6
L: 1/16
Q: 1/4=102
K: G
"^A"\
|: "G"d3B G2G2 (BG)Bd | "D7"A2AB "G"G2G2 (BG)Bd | "C"c2e2 "G"d2Bd "C"(cB)AG |\
"D7"(FG)AB [1,3 (AG)FE D4 :|[2,4 A2BA "G"G4 :|
"^B"\
|: "G"{c}d2d2 "D7"d2ef "G"g2g2 | "(C)"(3(gag) fe "D7"d2ef "G"g2B2 | "C"(cB)ce "G"d2Bd "C"(cB)AG |\
"D7"(FG)AB [1,3 (AG)FE D4 :|[2,4 A2BA "G"G4 :|
